X:1
T:Jack P. Scholfield
T:Jack P. Scholfield
T:Friend of Friends
%%score { ( 1 2 ) | ( 3 4 ) }
L:1/8
M:6/4
K:Eb
V:1 treble 
V:2 treble 
V:3 bass 
V:4 bass 
V:1
{/x} B4 G2 A4 F2 | G4 E2 F4 B,2 | E4 F2 G4 E2 | B4 c2 F6 | B4 G2 A4 F2 | G4 E2 F4 B,2 | %6
w: 'Tho all o- thers|may for- sake, There's|One whose faith- ful-|ness is sure;|Naught my faith in|Him can shake, For|
w: Dark- ness comes, I|lose my way, Un|con- sciou- ly a-|far I roam;|Then I hear my|Shep- herd say; "Fear|
w: When the storms beat|round my soul, And|I would per- ish|in des- pair,|Je- sus comes and|takes con- trol And|
w: When at last I|leave this shore And|face the land of|cloud- less day,|When the fear- ful|break- ers roar, He|
 E4 F2 G4 E2 | B4 c2 !fermata!d6 | e4 B2 A4 G2 | F4 A2 c6 | d4 c2 A4 F2 | E4 G2 B6 | e4 d2 f4 e2 | %13
w: in His care I|am se- cure.||||||
w: not, My child, I'll|guide you home.|Je- sus is the|Friend for me,|Ev- er true to|Him I'll be;|He's my Pi- lot|
w: guides me safe- ly|ev- 'ry- where.||||||
w: will be near to|lead the way.||||||
 e4 d2 !fermata!c6 | e4 c2 B4 c2 | G4 F2 E6 |] %16
w: |||
w: o'er life's sea,|He's the Friend of|friends to me.|
w: |||
w: |||
V:2
 E4 E2 E4 E2 | E4 E2 D4 B,2 | B,4 B,2 E4 E2 | D4 E2 D6 | E4 E2 E4 E2 | E4 E2 D4 B,2 | %6
 B,4 B,2 E4 E2 | E4 E2 (F4 A2) | G4 G2 F4 E2 | E4 F2 F6 | A4 A2 F4 D2 | E4 E2 F6 | G4 F2 A4 G2 | %13
 G4 B2 A6 | ^F4 F2 G4 A2 | E4 D2 E6 |] %16
V:3
 G,4 B,2 C4 A,2 | B,4 G,2 A,4 A,2 | G,4 A,2 B,4 B,2 | B,4 =A,2 B,6 | G,4 B,2 C4 A,2 | %5
 B,4 G,2 A,4 A,2 | G,4 A,2 B,4 G,2 | B,4 =A,2 (_A,4 !fermata!B,2) | B,4 B,2 B,4 B,2 | C4 C2 C6 | %10
 B,4 D2 D4 A,2 | G,4 B,2 E6 | B,4 B,2 B,4 B,2 | B,4 E2 !fermata!E6 | C4 E2 E4 D2 | B,4 A,2 G,6 |] %16
V:4
 E,4 E,2 E,4 E,2 | E,4 E,2 B,,4 D,2 | E,4 E,2 E,4 G,2 | F,4 F,2 B,6 | E,4 E,2 E,4 E,2 | %5
 E,4 E,2 B,,4 D,2 | E,4 E,2 E,4 E,2 | G,4 F,2 !fermata!B,,6 | E,4 E,2 E,4 E,2 | A,4 A,2 A,6 | %10
 B,4 B,2 B,,4 B,,2 | E,4 E,2 E,6 | E,4 E,2 E,4 E,2 | E,4 G,2 A,6 | =A,4 A,2 B,4 B,2 | %15
 B,4 B,,2 E,6 |] %16

